evrofasad/img/icons/froze.svg

<svg width="25" height="25" viewBox="0 0 25 25" fill="none" xmlns="http://www.w3.org/2000/svg">
<path d="M1.8968 18.6852V23.1032H6.3148L19.345 10.0613L14.927 5.64326L1.8968 18.6852ZM25 19.9929L19.9929 25L13.8666 18.8737L15.9519 16.7884L17.1301 17.9665L20.0401 15.0448L21.713 16.7177L19.9929 18.3907L21.2418 19.5688L22.9147 17.9194L25 19.9929ZM6.14986 11.1216L0 5.00707L5.00707 0L7.08058 2.0853L4.17059 5.00707L5.4312 6.25589L8.32941 3.33412L10.0024 5.00707L8.32941 6.66824L9.50754 7.84637L6.14986 11.1216ZM22.7615 6.60933C23.221 6.14986 23.221 5.4312 22.7615 4.94816L20.0047 2.23845C19.5688 1.77898 18.803 1.77898 18.3435 2.23845L16.1758 4.39444L20.5938 8.81244L22.7615 6.60933Z" fill="white"/>
</svg>

<svg width="25" height="25" fill="none" xmlns="http://www.w3.org/2000/svg"><path d="M1.897 18.685v4.418h4.418l13.03-13.042-4.418-4.418-13.03 13.042zM25 19.993L19.993 25l-6.126-6.126 2.085-2.086 1.178 1.178 2.91-2.921 1.673 1.673-1.72 1.673 1.249 1.178 1.673-1.65L25 19.993zM6.15 11.122L0 5.007 5.007 0l2.074 2.085-2.91 2.922 1.26 1.249L8.33 3.334l1.673 1.673L8.33 6.668l1.179 1.178-3.358 3.276zm16.61-4.513c.46-.46.46-1.178 0-1.66l-2.756-2.71c-.436-.46-1.202-.46-1.662 0l-2.167 2.155 4.418 4.418 2.168-2.203z" fill="#fff"/></svg>
